; generated by Slic3r 0.8.4 on 2012-11-30 at 02:18:53

; layer_height = 0.3
; perimeters = 2
; solid_layers = 3
; fill_density = 0.55
; nozzle_diameter = 0.5
; filament_diameter = 3
; extrusion_multiplier = 1
; perimeter_speed = 65
; infill_speed = 100
; travel_speed = 200
; scale = 1
; single wall width = 0.53mm

M190 S60 ; wait for bed temperature to be reached
M104 S220 ; set temperature
G28 ; home all axes
M109 S220 ; wait for temperature to be reached
G90 ; use absolute coordinates
G21 ; set units to millimeters
G92 E0 ; reset extrusion distance
M82 ; use absolute distances for extrusion
G1 Z0.300 F12000.000
G1 X60.810 Y75.990
G1
G1 X61.180 Y75.630 F1170.000 E0.01139
G1 X61.570 Y75.310 E0.02251
G1 X61.780 Y75.160 E0.02820
G1 X62.000 Y75.020 E0.03395
G1 X62.680 Y74.660 E0.05092
G1 X63.150 Y74.470 E0.06210
G1 X63.640 Y74.320 E0.07340
G1 X63.890 Y74.260 E0.07907
G1 X64.650 Y74.150 E0.09601
G1 X65.160 Y74.130 E0.10727
G1 X105.340 Y74.150 E0.99340
G1 X106.100 Y74.260 E1.01033
G1 X106.600 Y74.390 E1.02172
G1 X107.080 Y74.560 E1.03295
G1 X107.310 Y74.660 E1.03849
G1 X107.990 Y75.020 E1.05545
G1 X108.210 Y75.160 E1.06121
G1 X108.420 Y75.310 E1.06690
G1 X108.810 Y75.630 E1.07802
G1 X109.360 Y76.180 E1.09518
G1 X109.680 Y76.570 E1.10630
G1 X109.830 Y76.780 E1.11199
G1 X109.970 Y77.000 E1.11775
G1 X110.330 Y77.680 E1.13471
G1 X110.520 Y78.150 E1.14589
G1 X110.670 Y78.640 E1.15720
G1 X110.730 Y78.890 E1.16287
G1 X110.840 Y79.650 E1.17980
G1 X110.840 Y120.340 E2.07718
G1 X110.730 Y121.100 E2.09411
G1 X110.600 Y121.600 E2.10551
G1 X110.430 Y122.080 E2.11674
G1 X110.330 Y122.310 E2.12227
G1 X109.970 Y122.990 E2.13924
G1 X109.830 Y123.210 E2.14499
G1 X109.680 Y123.420 E2.15068
G1 X109.360 Y123.810 E2.16181
G1 X108.810 Y124.360 E2.17896
G1 X108.420 Y124.680 E2.19009
G1 X108.210 Y124.830 E2.19578
G1 X107.990 Y124.970 E2.20153
G1 X107.310 Y125.330 E2.21850
G1 X106.840 Y125.520 E2.22968
G1 X106.350 Y125.670 E2.24098
G1 X106.100 Y125.730 E2.24665
G1 X105.340 Y125.840 E2.26358
G1 X104.830 Y125.860 E2.27484
G1 X64.650 Y125.840 E3.16097
G1 X63.890 Y125.730 E3.17791
G1 X63.390 Y125.600 E3.18930
G1 X62.910 Y125.430 E3.20053
G1 X62.680 Y125.330 E3.20606
G1 X62.000 Y124.970 E3.22303
G1 X61.780 Y124.830 E3.22878
G1 X61.570 Y124.680 E3.23447
G1 X61.180 Y124.360 E3.24560
G1 X60.630 Y123.810 E3.26275
G1 X60.310 Y123.420 E3.27388
G1 X60.160 Y123.210 E3.27957
G1 X60.020 Y122.990 E3.28532
G1 X59.660 Y122.310 E3.30229
G1 X59.470 Y121.840 E3.31347
G1 X59.320 Y121.350 E3.32477
G1 X59.260 Y121.100 E3.33044
G1 X59.150 Y120.340 E3.34738
G1 X59.150 Y79.650 E4.24475
G1 X59.260 Y78.890 E4.26169
G1 X59.390 Y78.390 E4.27308
G1 X59.560 Y77.910 E4.28431
G1 X59.660 Y77.680 E4.28984
G1 X60.020 Y77.000 E4.30681
G1 X60.160 Y76.780 E4.31256
G1 X60.310 Y76.570 E4.31825
G1 X60.630 Y76.180 E4.32938
G1 X60.756 Y76.047 E4.33342
G1 X61.170 Y76.350 F12000.000
G1 X61.350 Y76.170 F1170.000 E4.33903
G1 X61.720 Y75.850 E4.34982
G1 X62.120 Y75.560 E4.36071
G1 X62.550 Y75.300 E4.37180
G1 X62.990 Y75.090 E4.38255
G1 X63.460 Y74.910 E4.39365
G1 X63.930 Y74.780 E4.40440
G1 X64.420 Y74.690 E4.41539
G1 X65.160 Y74.640 E4.43175
G1 X105.080 Y74.650 E5.31214
G1 X105.570 Y74.690 E5.32298
G1 X106.060 Y74.780 E5.33397
G1 X106.530 Y74.910 E5.34473
G1 X107.000 Y75.090 E5.35583
G1 X107.440 Y75.300 E5.36658
G1 X107.870 Y75.560 E5.37766
G1 X108.270 Y75.850 E5.38856
G1 X108.640 Y76.170 E5.39935
G1 X108.820 Y76.350 E5.40496
G1 X109.140 Y76.720 E5.41575
G1 X109.430 Y77.120 E5.42664
G1 X109.690 Y77.550 E5.43773
G1 X109.900 Y77.990 E5.44848
G1 X110.080 Y78.460 E5.45958
G1 X110.210 Y78.930 E5.47033
G1 X110.300 Y79.420 E5.48132
G1 X110.350 Y80.160 E5.49768
G1 X110.340 Y120.080 E6.37807
G1 X110.300 Y120.570 E6.38891
G1 X110.210 Y121.060 E6.39990
G1 X110.080 Y121.530 E6.41066
G1 X109.900 Y122.000 E6.42176
G1 X109.690 Y122.440 E6.43251
G1 X109.430 Y122.870 E6.44359
G1 X109.140 Y123.270 E6.45449
G1 X108.820 Y123.640 E6.46527
G1 X108.640 Y123.820 E6.47089
G1 X108.270 Y124.140 E6.48168
G1 X107.870 Y124.430 E6.49257
G1 X107.440 Y124.690 E6.50365
G1 X107.000 Y124.900 E6.51441
G1 X106.530 Y125.080 E6.52551
G1 X106.060 Y125.210 E6.53626
G1 X105.570 Y125.300 E6.54725
G1 X104.830 Y125.350 E6.56361
G1 X64.910 Y125.340 E7.44400
G1 X64.420 Y125.300 E7.45484
G1 X63.930 Y125.210 E7.46583
G1 X63.460 Y125.080 E7.47659
G1 X62.990 Y124.900 E7.48768
G1 X62.550 Y124.690 E7.49844
G1 X62.120 Y124.430 E7.50952
G1 X61.720 Y124.140 E7.52042
G1 X61.350 Y123.820 E7.53120
G1 X61.170 Y123.640 E7.53682
G1 X60.850 Y123.270 E7.54761
G1 X60.560 Y122.870 E7.55850
G1 X60.300 Y122.440 E7.56958
G1 X60.090 Y122.000 E7.58034
G1 X59.910 Y121.530 E7.59144
G1 X59.780 Y121.060 E7.60219
G1 X59.690 Y120.570 E7.61318
G1 X59.640 Y119.830 E7.62954
G1 X59.650 Y79.910 E8.50993
G1 X59.690 Y79.420 E8.52077
G1 X59.780 Y78.930 E8.53176
G1 X59.910 Y78.460 E8.54251
G1 X60.090 Y77.990 E8.55361
G1 X60.300 Y77.550 E8.56437
G1 X60.560 Y77.120 E8.57545
G1 X60.850 Y76.720 E8.58634
G1 X61.118 Y76.409 E8.59540
G1 X65.678 Y119.322 F12000.000
G1 X65.678 Y80.678 F1170.000 E9.44767
G1 X104.322 Y80.678 E10.29993
G1 X104.322 Y119.322 E11.15220
G1 X65.756 Y119.322 E12.00273
G1 X65.162 Y119.838 F12000.000
G1 X65.162 Y80.162 F1170.000 E12.87773
G1 X104.838 Y80.162 E13.75272
G1 X104.838 Y119.838 E14.62771
G1 X65.241 Y119.838 E15.50097
G1 X66.341 Y118.956 F12000.000
G1 X66.044 Y118.659 F1800.000 E15.51023
G1 X66.044 Y117.928 E15.52634
G1 X67.072 Y118.956 E15.55839
G1 X67.802 Y118.956 E15.57450
G1 X66.044 Y117.198 E15.62933
G1 X66.044 Y116.467 E15.64544
G1 X68.533 Y118.956 E15.72304
G1 X69.263 Y118.956 E15.73915
G1 X66.044 Y115.737 E15.83954
G1 X66.044 Y115.007 E15.85565
G1 X69.993 Y118.956 E15.97882
G1 X70.724 Y118.956 E15.99492
G1 X66.044 Y114.276 E16.14087
G1 X66.044 Y113.546 E16.15698
G1 X71.454 Y118.956 E16.32571
G1 X72.184 Y118.956 E16.34181
G1 X66.044 Y112.816 E16.53332
G1 X66.044 Y112.085 E16.54943
G1 X72.915 Y118.956 E16.76372
G1 X73.645 Y118.956 E16.77982
G1 X66.044 Y111.355 E17.01689
G1 X66.044 Y110.624 E17.03300
G1 X74.376 Y118.956 E17.29284
G1 X75.106 Y118.956 E17.30895
G1 X66.044 Y109.894 E17.59158
G1 X66.044 Y109.164 E17.60768
G1 X75.836 Y118.956 E17.91309
G1 X76.567 Y118.956 E17.92920
G1 X66.044 Y108.433 E18.25738
G1 X66.044 Y107.703 E18.27349
G1 X77.297 Y118.956 E18.62445
G1 X78.027 Y118.956 E18.64056
G1 X66.044 Y106.973 E19.01430
G1 X66.044 Y106.242 E19.03041
G1 X78.758 Y118.956 E19.42694
G1 X79.488 Y118.956 E19.44304
G1 X66.044 Y105.512 E19.86235
G1 X66.044 Y104.781 E19.87845
G1 X80.219 Y118.956 E20.32054
G1 X80.949 Y118.956 E20.33664
G1 X66.044 Y104.051 E20.80151
G1 X66.044 Y103.321 E20.81761
G1 X81.679 Y118.956 E21.30526
G1 X82.410 Y118.956 E21.32136
G1 X66.044 Y102.590 E21.83178
G1 X66.044 Y101.860 E21.84789
G1 X83.140 Y118.956 E22.38109
G1 X83.871 Y118.956 E22.39720
G1 X66.044 Y101.130 E22.95319
G1 X66.044 Y100.399 E22.96929
G1 X84.601 Y118.956 E23.54806
G1 X85.331 Y118.956 E23.56417
G1 X66.044 Y99.669 E24.16571
G1 X66.044 Y98.938 E24.18182
G1 X86.062 Y118.956 E24.80614
G1 X86.792 Y118.956 E24.82225
G1 X66.044 Y98.208 E25.46935
G1 X66.044 Y97.478 E25.48546
G1 X87.522 Y118.956 E26.15534
G1 X88.253 Y118.956 E26.17145
G1 X66.044 Y96.747 E26.86411
G1 X66.044 Y96.017 E26.88021
G1 X88.983 Y118.956 E27.59565
G1 X89.713 Y118.956 E27.61176
G1 X66.044 Y95.287 E28.34998
G1 X66.044 Y94.556 E28.36609
G1 X90.444 Y118.956 E29.12709
G1 X91.174 Y118.956 E29.14320
G1 X66.044 Y93.826 E29.92698
G1 X66.044 Y93.095 E29.94309
G1 X91.905 Y118.956 E30.74965
G1 X92.635 Y118.956 E30.76575
G1 X66.044 Y92.365 E31.59509
G1 X66.044 Y91.635 E31.61120
G1 X93.365 Y118.956 E32.46332
G1 X94.096 Y118.956 E32.47943
G1 X66.044 Y90.904 E33.35433
G1 X66.044 Y90.174 E33.37043
G1 X94.826 Y118.956 E34.26811
G1 X95.556 Y118.956 E34.28422
G1 X66.044 Y89.444 E35.20468
G1 X66.044 Y88.713 E35.22079
G1 X96.287 Y118.956 E36.16402
G1 X97.017 Y118.956 E36.18013
G1 X66.044 Y87.983 E37.14615
G1 X66.044 Y87.252 E37.16226
G1 X97.748 Y118.956 E38.15105
G1 X98.478 Y118.956 E38.16716
G1 X66.044 Y86.522 E39.17874
G1 X66.044 Y85.792 E39.19484
G1 X99.208 Y118.956 E40.22920
G1 X99.939 Y118.956 E40.24531
G1 X66.044 Y85.061 E41.30244
G1 X66.044 Y84.331 E41.31855
G1 X100.669 Y118.956 E42.39847
G1 X101.399 Y118.956 E42.41457
G1 X66.044 Y83.601 E43.51727
G1 X66.044 Y82.870 E43.53337
G1 X102.130 Y118.956 E44.65885
G1 X102.860 Y118.956 E44.67495
G1 X66.044 Y82.140 E45.82321
G1 X66.044 Y81.409 E45.83932
G1 X103.591 Y118.956 E47.01035
G1 X103.956 Y118.590 E47.02174
G1 X66.410 Y81.044 E48.19277
G1 X67.140 Y81.044 E48.20888
G1 X103.956 Y117.860 E49.35713
G1 X103.956 Y117.130 E49.37324
G1 X67.870 Y81.044 E50.49871
G1 X68.601 Y81.044 E50.51482
G1 X103.956 Y116.399 E51.61752
G1 X103.956 Y115.669 E51.63362
G1 X69.331 Y81.044 E52.71354
G1 X70.061 Y81.044 E52.72965
G1 X103.956 Y114.939 E53.78678
G1 X103.956 Y114.208 E53.80289
G1 X70.792 Y81.044 E54.83724
G1 X71.522 Y81.044 E54.85335
G1 X103.956 Y113.478 E55.86492
G1 X103.956 Y112.747 E55.88103
G1 X72.252 Y81.044 E56.86983
G1 X72.983 Y81.044 E56.88594
G1 X103.956 Y112.017 E57.85195
G1 X103.956 Y111.287 E57.86806
G1 X73.713 Y81.044 E58.81130
G1 X74.444 Y81.044 E58.82741
G1 X103.956 Y110.556 E59.74786
G1 X103.956 Y109.826 E59.76397
G1 X75.174 Y81.044 E60.66165
G1 X75.904 Y81.044 E60.67775
G1 X103.956 Y109.096 E61.55265
G1 X103.956 Y108.365 E61.56876
G1 X76.635 Y81.044 E62.42087
G1 X77.365 Y81.044 E62.43698
G1 X103.956 Y107.635 E63.26632
G1 X103.956 Y106.905 E63.28242
G1 X78.096 Y81.044 E64.08898
G1 X78.826 Y81.044 E64.10509
G1 X103.956 Y106.174 E64.88886
G1 X103.956 Y105.444 E64.90497
G1 X79.556 Y81.044 E65.66597
G1 X80.287 Y81.044 E65.68207
G1 X103.956 Y104.713 E66.42029
G1 X103.956 Y103.983 E66.43640
G1 X81.017 Y81.044 E67.15184
G1 X81.747 Y81.044 E67.16794
G1 X103.956 Y103.253 E67.86060
G1 X103.956 Y102.522 E67.87671
G1 X82.478 Y81.044 E68.54659
G1 X83.208 Y81.044 E68.56270
G1 X103.956 Y101.792 E69.20979
G1 X103.956 Y101.062 E69.22590
G1 X83.938 Y81.044 E69.85022
G1 X84.669 Y81.044 E69.86633
G1 X103.956 Y100.331 E70.46787
G1 X103.956 Y99.601 E70.48397
G1 X85.399 Y81.044 E71.06274
G1 X86.130 Y81.044 E71.07884
G1 X103.956 Y98.870 E71.63482
G1 X103.956 Y98.140 E71.65093
G1 X86.860 Y81.044 E72.18413
G1 X87.590 Y81.044 E72.20024
G1 X103.956 Y97.410 E72.71066
G1 X103.956 Y96.679 E72.72677
G1 X88.321 Y81.044 E73.21441
G1 X89.051 Y81.044 E73.23052
G1 X103.956 Y95.949 E73.69538
G1 X103.956 Y95.218 E73.71149
G1 X89.782 Y81.044 E74.15357
G1 X90.512 Y81.044 E74.16967
G1 X103.956 Y94.488 E74.58898
G1 X103.956 Y93.758 E74.60509
G1 X91.242 Y81.044 E75.00161
G1 X91.973 Y81.044 E75.01771
G1 X103.956 Y93.027 E75.39146
G1 X103.956 Y92.297 E75.40757
G1 X92.703 Y81.044 E75.75853
G1 X93.433 Y81.044 E75.77464
G1 X103.956 Y91.567 E76.10282
G1 X103.956 Y90.836 E76.11893
G1 X94.164 Y81.044 E76.42433
G1 X94.894 Y81.044 E76.44044
G1 X103.956 Y90.106 E76.72307
G1 X103.955 Y89.376 E76.73917
G1 X95.624 Y81.045 E76.99901
G1 X96.355 Y81.044 E77.01513
G1 X103.956 Y88.645 E77.25219
G1 X103.956 Y87.915 E77.26829
G1 X97.085 Y81.044 E77.48257
G1 X97.816 Y81.044 E77.49869
G1 X103.956 Y87.184 E77.69019
G1 X103.956 Y86.454 E77.70629
G1 X98.546 Y81.044 E77.87502
G1 X99.277 Y81.044 E77.89113
G1 X103.956 Y85.723 E78.03708
G1 X103.956 Y84.993 E78.05318
G1 X100.007 Y81.044 E78.17634
G1 X100.737 Y81.044 E78.19246
G1 X103.956 Y84.263 E78.29284
G1 X103.956 Y83.533 E78.30894
G1 X101.468 Y81.044 E78.38655
G1 X102.198 Y81.045 E78.40265
G1 X103.955 Y82.802 E78.45747
G1 X103.956 Y82.072 E78.47359
G1 X102.928 Y81.044 E78.50564
G1 X103.658 Y81.044 E78.52174
G1 X103.955 Y81.342 E78.53100
G1 Z0.600 F12000.000
G1 X104.322 Y119.322
G1 X65.678 Y119.322 F3900.000 E79.38327
G1 X65.678 Y80.678 E80.23554
G1 X104.322 Y80.678 E81.08781
G1 X104.322 Y119.244 E81.93834
G1 X104.838 Y119.838 F12000.000
G1 X65.162 Y119.838 F3900.000 E82.81333
G1 X65.162 Y80.162 E83.68833
G1 X104.838 Y80.162 E84.56332
G1 X104.838 Y119.759 E85.43657
G1 X103.956 Y118.659 F12000.000
G1 X103.659 Y118.956 F6000.000 E85.44584
G1 X102.928 Y118.956 E85.46195
G1 X103.956 Y117.928 E85.49400
G1 X103.956 Y117.198 E85.51010
G1 X102.198 Y118.956 E85.56493
G1 X101.467 Y118.956 E85.58104
G1 X103.956 Y116.467 E85.65865
G1 X103.956 Y115.737 E85.67476
G1 X100.737 Y118.956 E85.77515
G1 X100.007 Y118.956 E85.79125
G1 X103.956 Y115.007 E85.91442
G1 X103.956 Y114.276 E85.93053
G1 X99.276 Y118.956 E86.07648
G1 X98.546 Y118.956 E86.09258
G1 X103.956 Y113.546 E86.26131
G1 X103.956 Y112.816 E86.27742
G1 X97.816 Y118.956 E86.46893
G1 X97.085 Y118.956 E86.48503
G1 X103.956 Y112.085 E86.69932
G1 X103.956 Y111.355 E86.71543
G1 X96.355 Y118.956 E86.95249
G1 X95.624 Y118.956 E86.96860
G1 X103.956 Y110.624 E87.22845
G1 X103.956 Y109.894 E87.24455
G1 X94.894 Y118.956 E87.52718
G1 X94.164 Y118.956 E87.54329
G1 X103.956 Y109.164 E87.84869
G1 X103.956 Y108.433 E87.86480
G1 X93.433 Y118.956 E88.19298
G1 X92.703 Y118.956 E88.20909
G1 X103.956 Y107.703 E88.56005
G1 X103.956 Y106.973 E88.57616
G1 X91.973 Y118.956 E88.94991
G1 X91.242 Y118.956 E88.96602
G1 X103.956 Y106.242 E89.36254
G1 X103.956 Y105.512 E89.37865
G1 X90.512 Y118.956 E89.79795
G1 X89.781 Y118.956 E89.81406
G1 X103.956 Y104.781 E90.25615
G1 X103.956 Y104.051 E90.27225
G1 X89.051 Y118.956 E90.73712
G1 X88.321 Y118.956 E90.75323
G1 X103.956 Y103.321 E91.24087
G1 X103.956 Y102.590 E91.25698
G1 X87.590 Y118.956 E91.76740
G1 X86.860 Y118.956 E91.78351
G1 X103.956 Y101.860 E92.31671
G1 X103.956 Y101.130 E92.33282
G1 X86.130 Y118.956 E92.88880
G1 X85.399 Y118.956 E92.90491
G1 X103.956 Y100.399 E93.48367
G1 X103.956 Y99.669 E93.49978
G1 X84.669 Y118.956 E94.10132
G1 X83.938 Y118.956 E94.11743
G1 X103.956 Y98.938 E94.74175
G1 X103.956 Y98.208 E94.75785
G1 X83.208 Y118.956 E95.40495
G1 X82.478 Y118.956 E95.42106
G1 X103.956 Y97.478 E96.09094
G1 X103.956 Y96.747 E96.10705
G1 X81.747 Y118.956 E96.79971
G1 X81.017 Y118.956 E96.81582
G1 X103.956 Y96.017 E97.53126
G1 X103.956 Y95.286 E97.54737
G1 X80.286 Y118.956 E98.28559
G1 X79.556 Y118.956 E98.30169
G1 X103.956 Y94.556 E99.06269
G1 X103.956 Y93.826 E99.07880
G1 X78.826 Y118.956 E99.86258
G1 X78.095 Y118.956 E99.87869
G1 X103.956 Y93.095 E100.68525
G1 X103.956 Y92.365 E100.70135
G1 X77.365 Y118.956 E101.53069
G1 X76.634 Y118.956 E101.54681
G1 X103.956 Y91.634 E102.39893
G1 X103.956 Y90.904 E102.41503
G1 X75.904 Y118.956 E103.28993
G1 X75.174 Y118.955 E103.30604
G1 X103.956 Y90.174 E104.20372
G1 X103.956 Y89.444 E104.21982
G1 X74.444 Y118.956 E105.14027
G1 X73.713 Y118.955 E105.15639
G1 X103.956 Y88.713 E106.09963
G1 X103.956 Y87.983 E106.11572
G1 X72.983 Y118.956 E107.08174
G1 X72.253 Y118.956 E107.09784
G1 X103.956 Y87.252 E108.08664
G1 X103.956 Y86.522 E108.10275
G1 X71.522 Y118.956 E109.11432
G1 X70.792 Y118.956 E109.13042
G1 X103.956 Y85.792 E110.16479
G1 X103.956 Y85.061 E110.18090
G1 X70.061 Y118.956 E111.23804
G1 X69.331 Y118.956 E111.25414
G1 X103.956 Y84.331 E112.33405
G1 X103.956 Y83.600 E112.35017
G1 X68.600 Y118.956 E113.45287
G1 X67.870 Y118.956 E113.46897
G1 X103.956 Y82.871 E114.59444
G1 X103.956 Y82.139 E114.61056
G1 X67.140 Y118.955 E115.75882
G1 X66.409 Y118.956 E115.77492
G1 X103.956 Y81.410 E116.94595
G1 X103.590 Y81.044 E116.95735
G1 X66.044 Y118.590 E118.12838
G1 X66.044 Y117.860 E118.14448
G1 X102.860 Y81.044 E119.29274
G1 X102.130 Y81.045 E119.30885
G1 X66.045 Y117.130 E120.43431
G1 X66.044 Y116.399 E120.45043
G1 X101.399 Y81.044 E121.55313
G1 X100.669 Y81.045 E121.56924
G1 X66.044 Y115.669 E122.64914
G1 X66.044 Y114.939 E122.66526
G1 X99.939 Y81.044 E123.72239
G1 X99.208 Y81.045 E123.73850
G1 X66.044 Y114.208 E124.77284
G1 X66.044 Y113.478 E124.78896
G1 X98.478 Y81.044 E125.80053
G1 X97.748 Y81.044 E125.81663
G1 X66.044 Y112.748 E126.80543
G1 X66.044 Y112.017 E126.82155
G1 X97.017 Y81.044 E127.78756
G1 X96.287 Y81.044 E127.80365
G1 X66.044 Y111.287 E128.74690
G1 X66.044 Y110.556 E128.76301
G1 X95.556 Y81.044 E129.68346
G1 X94.826 Y81.044 E129.69956
G1 X66.044 Y109.826 E130.59724
G1 X66.045 Y109.096 E130.61334
G1 X94.096 Y81.045 E131.48823
G1 X93.365 Y81.044 E131.50435
G1 X66.044 Y108.365 E132.35647
G1 X66.044 Y107.635 E132.37257
G1 X92.635 Y81.044 E133.20190
